assets/images/lumious.svg

<svg width="120" height="28" viewBox="0 0 120 28" fill="none" xmlns="http://www.w3.org/2000/svg">
<path d="M34.4219 19.9062V8.37207H38.2652V16.7103H46.5772V19.91L34.4219 19.9062Z" fill="#022F45"/>
<path d="M61.8617 8.37207V14.8685C61.8617 16.2258 61.5938 17.3058 61.0578 18.1083C60.5219 18.9109 59.7546 19.4793 58.756 19.8136C57.758 20.1474 56.5104 20.3143 55.0133 20.3143C53.5162 20.3143 52.2686 20.1474 51.2705 19.8136C50.2725 19.4798 49.5052 18.9142 48.9687 18.1167C48.4323 17.3192 48.1641 16.2364 48.1641 14.8685V8.37207H52.0074V14.7555C52.0074 15.5843 52.2657 16.1821 52.7825 16.5487C53.2992 16.9154 54.0438 17.0987 55.0164 17.0987C55.9802 17.0987 56.7227 16.9154 57.2441 16.5487C57.7655 16.1821 58.0254 15.5843 58.0239 14.7555V8.37207H61.8617Z" fill="#022F45"/>
<path d="M80.7946 19.9062H76.9513V12.0527H76.8616L73.8206 19.9062H70.9223L67.8385 11.9556H67.734V19.9062H64.0996V8.37207H69.9983L72.3376 14.8518H72.4413L74.7352 8.37207H80.7985L80.7946 19.9062Z" fill="#022F45"/>
<path d="M83.0293 19.9062V8.37207H86.8726V19.91L83.0293 19.9062Z" fill="#022F45"/>
<path d="M102.282 9.48395C103.578 10.4954 104.226 12.0467 104.226 14.1378C104.226 16.2289 103.578 17.7802 102.282 18.7916C100.987 19.8031 99.0632 20.3088 96.5124 20.3088C93.9694 20.3088 92.0502 19.8031 90.7548 18.7916C89.4594 17.7802 88.8107 16.2289 88.8086 14.1378C88.8086 12.0482 89.4566 10.4969 90.7525 9.48395C92.0484 8.471 93.9676 7.96528 96.5101 7.9668C99.0624 7.96528 100.987 8.471 102.282 9.48395ZM99.1316 16.3923C99.7169 15.8694 100.01 15.1179 100.01 14.1378C100.011 13.1577 99.7179 12.4062 99.1316 11.8833C98.5462 11.3609 97.6724 11.0997 96.5101 11.0997C95.3477 11.0997 94.4763 11.3609 93.8956 11.8833C93.3144 12.4062 93.0239 13.1577 93.0239 14.1378C93.0239 15.1179 93.3144 15.8694 93.8956 16.3923C94.4768 16.9147 95.3483 17.1759 96.5101 17.1759C97.6719 17.1759 98.5457 16.9147 99.1316 16.3923Z" fill="#022F45"/>
<path d="M114.424 10.8581C114.001 10.6559 113.393 10.5547 112.599 10.5547C111.785 10.5547 111.204 10.6382 110.856 10.8051C110.508 10.9719 110.334 11.217 110.334 11.5401C110.327 11.6534 110.352 11.7664 110.407 11.8665C110.462 11.9665 110.545 12.0495 110.646 12.106C110.854 12.2243 111.212 12.3106 111.718 12.3647L116.053 12.7523C117.364 12.8706 118.35 13.21 119.01 13.7703C119.671 14.3306 120.001 15.1764 120.001 16.3077C120.001 17.3743 119.735 18.1984 119.204 18.7799C118.673 19.3615 117.893 19.7628 116.865 19.9838C115.836 20.2048 114.478 20.3153 112.79 20.3153C111.171 20.3153 109.86 20.1967 108.857 19.9595C107.855 19.7223 107.083 19.2968 106.541 18.6828C106 18.0694 105.709 17.2021 105.67 16.0809H110.144C110.253 16.6954 110.529 17.1184 110.971 17.35C111.412 17.5816 112.071 17.6974 112.945 17.6974C113.838 17.6974 114.481 17.6084 114.874 17.4304C115.266 17.2524 115.462 16.9743 115.462 16.596C115.462 16.2835 115.348 16.0559 115.12 15.9133C114.891 15.7707 114.549 15.6791 114.092 15.6387L109.92 15.2025C108.599 15.0629 107.607 14.7342 106.942 14.2163C106.277 13.6985 105.944 12.8742 105.944 11.7434C105.944 10.7825 106.209 10.0257 106.741 9.47299C107.272 8.92025 108.031 8.52959 109.02 8.301C110.007 8.07495 111.246 7.96191 112.736 7.96191C114.216 7.96191 115.447 8.07773 116.43 8.30935C117.413 8.54096 118.181 8.94225 118.732 9.5132C119.284 10.0842 119.574 10.8652 119.603 11.8564H115.179C115.149 11.642 115.064 11.4383 114.932 11.2639C114.8 11.0896 114.625 10.9501 114.424 10.8581Z" fill="#022F45"/>
<path fill-rule="evenodd" clip-rule="evenodd" d="M15.5505 23.6942C15.0799 23.7529 14.6001 23.7832 14.1131 23.7832C13.6225 23.7832 13.1392 23.7525 12.6653 23.6929C12.441 24.9276 11.7916 25.841 10.8672 26.1516C10.0977 26.4114 9.36203 26.1777 9.28127 26.1521L9.27962 26.1516C7.5467 25.5713 7.05392 23.0733 6.92611 21.243C6.02255 20.5063 5.24031 19.6334 4.61278 18.6567C4.56337 18.8643 4.52447 19.0534 4.48888 19.2265C4.34259 19.9379 4.25232 20.3769 3.71853 20.7012C2.92241 21.1852 1.91967 20.9424 1.86665 20.9288C0.840512 20.6648 0.390604 19.7856 0.279101 19.5634C-0.812533 17.4227 1.63429 14.8064 1.86665 14.5628C2.22202 14.1922 2.5889 13.889 2.94346 13.638C2.9263 13.3913 2.91758 13.1425 2.91758 12.8916C2.91758 6.87633 7.92997 2 14.1131 2C20.2962 2 25.3086 6.87633 25.3086 12.8916C25.3086 13.147 25.2995 13.4003 25.2817 13.6512C25.6298 13.8996 25.9893 14.1987 26.338 14.5628C26.5812 14.8064 29.0288 17.4227 27.9357 19.5634C27.8249 19.7841 27.375 20.6633 26.3489 20.9288C26.2959 20.9424 25.2931 21.1852 24.497 20.7012C23.9661 20.3776 23.8759 19.9397 23.7298 19.2309C23.6945 19.0594 23.6559 18.8721 23.607 18.6666C22.9778 19.6434 22.1939 20.5162 21.2885 21.2523C21.1599 23.0818 20.6659 25.5723 18.9359 26.1516L18.9343 26.1521C18.8535 26.1777 18.1178 26.4114 17.3484 26.1516C16.4243 25.8411 15.775 24.9282 15.5505 23.6942Z" fill="#022F45"/>
<path d="M14.1129 18.6185C18.2311 18.6185 21.5695 16.0543 21.5695 12.8913C21.5695 9.72823 18.2311 7.16406 14.1129 7.16406C9.9947 7.16406 6.65625 9.72823 6.65625 12.8913C6.65625 16.0543 9.9947 18.6185 14.1129 18.6185Z" fill="white"/>
<path d="M10.918 14.343C11.809 14.343 12.5312 13.4029 12.5312 12.2433C12.5312 11.0836 11.809 10.1436 10.918 10.1436C10.027 10.1436 9.30469 11.0836 9.30469 12.2433C9.30469 13.4029 10.027 14.343 10.918 14.343Z" fill="#022F45"/>
<path d="M17.0352 14.343C17.9261 14.343 18.6484 13.4029 18.6484 12.2433C18.6484 11.0836 17.9261 10.1436 17.0352 10.1436C16.1442 10.1436 15.4219 11.0836 15.4219 12.2433C15.4219 13.4029 16.1442 14.343 17.0352 14.343Z" fill="#022F45"/>
</svg>

<svg width="120" height="28" fill="none" xmlns="http://www.w3.org/2000/svg"><path d="M34.422 19.906V8.372h3.843v8.338h8.312v3.2l-12.155-.004ZM61.862 8.372v6.496c0 1.358-.268 2.438-.804 3.24-.536.803-1.303 1.371-2.302 1.706-.998.333-2.246.5-3.743.5-1.497 0-2.744-.167-3.742-.5-.998-.334-1.766-.9-2.302-1.697-.537-.798-.805-1.88-.805-3.249V8.372h3.843v6.383c0 .83.259 1.427.776 1.794.516.366 1.26.55 2.233.55.964 0 1.707-.184 2.228-.55.522-.367.781-.965.78-1.793V8.371h3.838ZM80.795 19.906H76.95v-7.853h-.09l-3.04 7.853h-2.899l-3.084-7.95h-.104v7.95H64.1V8.372h5.898l2.34 6.48h.103l2.294-6.48H80.8l-.004 11.534ZM83.03 19.906V8.372h3.843V19.91l-3.844-.004ZM102.282 9.484c1.296 1.011 1.944 2.563 1.944 4.654 0 2.09-.648 3.642-1.944 4.654-1.295 1.011-3.219 1.517-5.77 1.517-2.543 0-4.462-.506-5.757-1.517-1.296-1.012-1.944-2.563-1.946-4.654 0-2.09.648-3.641 1.944-4.654 1.295-1.013 3.215-1.519 5.757-1.517 2.552-.002 4.477.504 5.772 1.517Zm-3.15 6.908c.585-.523.878-1.274.878-2.254.001-.98-.292-1.732-.878-2.255-.586-.522-1.46-.783-2.622-.783s-2.034.26-2.614.783c-.582.523-.872 1.275-.872 2.255s.29 1.731.872 2.254c.58.523 1.452.784 2.614.784s2.036-.261 2.622-.784ZM114.424 10.858c-.423-.202-1.031-.303-1.825-.303-.814 0-1.395.083-1.743.25-.348.167-.522.412-.522.735a.6.6 0 0 0 .312.566c.208.118.566.205 1.072.259l4.335.387c1.311.119 2.297.458 2.957 1.018.661.56.991 1.406.991 2.538 0 1.066-.266 1.89-.797 2.472-.531.581-1.311.983-2.339 1.204-1.029.22-2.387.331-4.075.331-1.619 0-2.93-.118-3.933-.356-1.002-.237-1.774-.662-2.316-1.276-.541-.614-.832-1.48-.871-2.602h4.474c.109.614.385 1.037.827 1.269.441.232 1.1.347 1.974.347.893 0 1.536-.089 1.929-.267.392-.178.588-.456.588-.834 0-.313-.114-.54-.342-.683-.229-.142-.571-.234-1.028-.274l-4.172-.436c-1.321-.14-2.313-.469-2.978-.987s-.998-1.342-.998-2.473c0-.96.265-1.717.797-2.27.531-.553 1.29-.943 2.279-1.172.987-.226 2.226-.34 3.716-.34 1.48 0 2.711.117 3.694.348.983.232 1.751.633 2.302 1.204.552.571.842 1.352.871 2.343h-4.424a1.274 1.274 0 0 0-.247-.592 1.333 1.333 0 0 0-.508-.406Z" fill="#022F45"/><path fill-rule="evenodd" clip-rule="evenodd" d="M15.55 23.694a11.61 11.61 0 0 1-2.885-.001c-.224 1.235-.873 2.148-1.798 2.459-.77.26-1.505.026-1.586 0H9.28c-1.733-.58-2.226-3.079-2.354-4.909a11.042 11.042 0 0 1-2.313-2.586c-.05.207-.089.396-.124.57-.146.71-.237 1.15-.77 1.474-.797.484-1.8.241-1.852.228C.84 20.665.39 19.786.279 19.563c-1.092-2.14 1.355-4.757 1.588-5a7.45 7.45 0 0 1 1.076-.925 10.753 10.753 0 0 1-.025-.746C2.918 6.876 7.93 2 14.113 2 20.296 2 25.31 6.876 25.31 12.892c0 .255-.01.508-.027.76.348.248.707.547 1.056.91.243.244 2.69 2.86 1.598 5.001-.111.221-.561 1.1-1.587 1.366-.053.013-1.056.256-1.852-.228-.53-.323-.621-.761-.767-1.47a18.308 18.308 0 0 0-.123-.564c-.63.976-1.413 1.85-2.319 2.585-.128 1.83-.622 4.32-2.352 4.9h-.002c-.08.026-.816.26-1.586 0-.924-.31-1.573-1.224-1.797-2.458Z" fill="#022F45"/><path d="M14.113 18.619c4.118 0 7.457-2.565 7.457-5.728s-3.339-5.727-7.457-5.727-7.457 2.564-7.457 5.727c0 3.163 3.339 5.728 7.457 5.728Z" fill="#fff"/><path d="M10.918 14.343c.891 0 1.613-.94 1.613-2.1 0-1.16-.722-2.1-1.613-2.1s-1.613.94-1.613 2.1c0 1.16.722 2.1 1.613 2.1ZM17.035 14.343c.891 0 1.613-.94 1.613-2.1 0-1.16-.722-2.1-1.613-2.1-.89 0-1.613.94-1.613 2.1 0 1.16.722 2.1 1.613 2.1Z" fill="#022F45"/></svg>
